X:490
T: Qiongren dou ba shen fan le
N: C0970
O: China,Gansu, Kangle
S: I, 109]
R: Hua'r, Shange. Lianhuashanling; politischer Text]
M: 4/4
L: 1/8
K: Eb
f6B2 | e2f2f2f2 | e2ece2c2
 | c2f2c2e2 | c2B2F4
 | F6e2 | e2f2ecB2 | f2ececB2
 | e2f2c2fe | f2cBF4
 | F6ec | cef2f2fe | f2ecB2B2
 | e2f2c2fe | e2cBF4
 | F8 | e2e2c2 | c2B2B2 | F6

